X: 21222
T: Mc Neill's Rant
%R: strathspey
B: James Oswald "The Caledonian Pocket Companion" v.2 p.122 #2
Z: 2018 John Chambers <jc:trillian.mit.edu>
M: 2/4
L: 1/16
K: D
|: "_Moderately Quick"\
A,A,3 A,3B, | D3EF3A | B3AF3E | DB,3 B,4 | A,A,3 A,3B, | D3EF3A | B3dA3B |
FD3 D4 :: d3AB3A | F3AB3A | F3DE3F | DB,3B,4 | A,A,3 A,3B, | D3EF3A | B3dA3B |
FD3 D4 :: AA3 AB3 | d3ef3a | b3fa3d | fe3 e3f | AA3 A3c |
d3ef3a | b3fa3e | fd3d4 :: f3de3B | d3AB3F | A3EF3D | EB,3B,4 |
f3de3B | d3A Bd3 | A,A,3 F3E | DD3D4 :: A,A,A,A, B,B,B,B, | DDDD EEEE |
FFFF EEEE | DDDD B,B,B,B, | A,A,A,A, B,B,B,B, | D3EF3A | B3dA3B |
FD3D4 :: ffff eeee | dddd BBBB | AAAA FFFF |
EEEE B,B,B,B, | ffff eeee | dddd BBBB | A,A,3 F3E | DD3D4 :|


